rospo-dark/16x16/actions/filename-and-amarok.svg

<svg height="16" viewBox="0 0 16 16" width="16" xmlns="http://www.w3.org/2000/svg"><path d="m7.2792969 1.0507812c-1.1178 0-2.1522782.2925057-2.9550781.9160157-.80478.62368-1.2695313 1.5764656-1.2695313 2.5722656 0 .91979.4235406 1.7848625 1.0253906 2.6015625-.24211.16584-.4774112.3465569-.7070312.5605469-.2794.26021-.5240663.5444056-.7226563.8535156a1.0233.97743 0 0 0 -.0019531.0058594c-.20359.32163-.3556431.6785662-.4707031 1.0664062a1.0233.97743 0 0 0 -.0019532.0097657c-.11563.4072702-.1699218.8348602-.1699218 1.2753902 0 .5513.1474019 1.098144.4199218 1.589844a1.0233.97743 0 0 0  .0058594.009766c.27063.47508.6375282.89642 1.0800782 1.24414.45013.35367.9764437.624136 1.5585937.822266a1.0233.97743 0 0 0  .0136719.003906c.60056.19557 1.2306.292969 1.875.292969 1.1651 0 2.2743187-.397581 3.3242186-.988281l.75.794922a1.0233.97743 0 0 0 1.412109.099609l.97461-.771484a1.0233.97743 0 0 0  .101562-1.414063l-.773437-.804687c.4006-.47929.812159-.931458 1.167969-1.523438a1.0233.97743 0 0 0 -.326172-1.3046874l-.958985-.5996094a1.0233.97743 0 0 0 -1.453125.3398438c-.18994.32468-.412117.550825-.617187.828125l-1.6445314-1.7070312c.21463-.1228701.4042025-.2387475.5703125-.3671876.12924-.1.2772125-.2170587.4453125-.3554687a1.0233.97743 0 0 0  .0019532-.0019531c.2177702-.1803.4076562-.3702063.5664062-.5976563a1.0233.97743 0 0 0  .011719-.0136719c.10422-.1556.203874-.32354.302734-.5.1449-.25233.249564-.5264237.308594-.8085937.0411-.19644.051447-.3999956.060547-.6035156a1.0233.97743 0 0 0  .017578-.1816407c0-.97937-.399312-1.9224781-1.169922-2.5175781-.74319-.57395-1.7073531-.8261719-2.7519531-.8261719zm1.9375 1.5957032.0058593.0078125c-.0009999-.001-.0029062-.0008632-.0039062-.0019531-.002-.001-.0003531-.0038594-.0019531-.0058594zm-1.9199219 1.3125c.37084 0 .4761656.0746787.5097656.1054687a1.0233.97743 0 0 0  .0058594.0058594c.0372.0333.0898438.0756744.0898438.3652344 0 .11698-.0190469.2112368-.0605469.3105469a1.0233.97743 0 0 0 -.0058594.0117187c-.0506.12563-.1041069.2091981-.1542969.2675781a1.0233.97743 0 0 0 -.0117187.0175782c-.0421.0512999-.1524181.1570799-.3300781.28125-.15196.10517-.2741576.1796893-.3984376.2558593-.2960299-.41543-.6054687-.8378762-.6054687-1.1289062 0-.17332-.0105069-.1605638.1582031-.2773438.20017-.13856.4277244-.2148437.8027344-.2148437zm-1.1621094 5.5332031 1.8847656 2.0000005c-.33249.112269-.6874024.36914-1.0078124.36914-.56149 0-.9189988-.126964-1.2304688-.371094-.31584-.25253-.3847656-.410131-.3847656-.707031 0-.43064.0975106-.691432.2753906-.9140624a1.0233.97743 0 0 0  .0039062-.0078125c.0950001-.12041.3172944-.2452806.4589844-.3691406z" fill="#d3dae3"/></svg>

<?xml version="1.0" encoding="UTF-8" standalone="no"?>
<svg xmlns="http://www.w3.org/2000/svg" width="22" height="22" viewBox="0 0 22 22">
 <defs>
  <style type="text/css" id="current-color-scheme">
   .ColorScheme-Text { color:#d3dae3; } .ColorScheme-Highlight { color:#5294e2; }
  </style>
 </defs>
 <path style="fill:currentColor;opacity:1" class="ColorScheme-Text" transform="translate(3 3)" d="M 7.2792969 1.0507812 C 6.1614969 1.0507812 5.1270187 1.3432869 4.3242188 1.9667969 C 3.5194388 2.5904769 3.0546875 3.5432625 3.0546875 4.5390625 C 3.0546875 5.4588525 3.4782281 6.323925 4.0800781 7.140625 C 3.8379681 7.306465 3.6026669 7.4871819 3.3730469 7.7011719 C 3.0936469 7.9613819 2.8489806 8.2455775 2.6503906 8.5546875 A 1.0233 0.97743 0 0 0 2.6484375 8.5605469 C 2.4448475 8.8821769 2.2927944 9.2391131 2.1777344 9.6269531 A 1.0233 0.97743 0 0 0 2.1757812 9.6367188 C 2.0601512 10.043989 2.0058594 10.471579 2.0058594 10.912109 C 2.0058594 11.463409 2.1532613 12.010253 2.4257812 12.501953 A 1.0233 0.97743 0 0 0 2.4316406 12.511719 C 2.7022706 12.986799 3.0691688 13.408139 3.5117188 13.755859 C 3.9618488 14.109529 4.4881625 14.379995 5.0703125 14.578125 A 1.0233 0.97743 0 0 0 5.0839844 14.582031 C 5.6845444 14.777601 6.3145844 14.875 6.9589844 14.875 C 8.1240844 14.875 9.2333031 14.477419 10.283203 13.886719 L 11.033203 14.681641 A 1.0233 0.97743 0 0 0 12.445312 14.78125 L 13.419922 14.009766 A 1.0233 0.97743 0 0 0 13.521484 12.595703 L 12.748047 11.791016 C 13.148647 11.311726 13.560206 10.859558 13.916016 10.267578 A 1.0233 0.97743 0 0 0 13.589844 8.9628906 L 12.630859 8.3632812 A 1.0233 0.97743 0 0 0 11.177734 8.703125 C 10.987794 9.027805 10.765617 9.25395 10.560547 9.53125 L 8.9160156 7.8242188 C 9.1306456 7.7013487 9.3202181 7.5854713 9.4863281 7.4570312 C 9.6155681 7.3570312 9.7635406 7.2399725 9.9316406 7.1015625 A 1.0233 0.97743 0 0 0 9.9335938 7.0996094 C 10.151364 6.9193094 10.34125 6.7294031 10.5 6.5019531 A 1.0233 0.97743 0 0 0 10.511719 6.4882812 C 10.615939 6.3326812 10.715593 6.1647412 10.814453 5.9882812 C 10.959353 5.7359512 11.064017 5.4618575 11.123047 5.1796875 C 11.164147 4.9832475 11.174494 4.7796919 11.183594 4.5761719 A 1.0233 0.97743 0 0 0 11.201172 4.3945312 C 11.201172 3.4151612 10.80186 2.4720531 10.03125 1.8769531 C 9.28806 1.3030031 8.3238969 1.0507812 7.2792969 1.0507812 z M 9.2167969 2.6464844 L 9.2226562 2.6542969 C 9.2216563 2.6532969 9.21975 2.6534337 9.21875 2.6523438 C 9.21675 2.6513438 9.2183969 2.6484844 9.2167969 2.6464844 z M 7.296875 3.9589844 C 7.667715 3.9589844 7.7730406 4.0336631 7.8066406 4.0644531 A 1.0233 0.97743 0 0 0 7.8125 4.0703125 C 7.8497 4.1036125 7.9023438 4.1459869 7.9023438 4.4355469 C 7.9023438 4.5525269 7.8832969 4.6467837 7.8417969 4.7460938 A 1.0233 0.97743 0 0 0 7.8359375 4.7578125 C 7.7853375 4.8834425 7.7318306 4.9670106 7.6816406 5.0253906 A 1.0233 0.97743 0 0 0 7.6699219 5.0429688 C 7.6278219 5.0942687 7.5175038 5.2000487 7.3398438 5.3242188 C 7.1878838 5.4293888 7.0656862 5.5039081 6.9414062 5.5800781 C 6.6453763 5.1646481 6.3359375 4.7422019 6.3359375 4.4511719 C 6.3359375 4.2778519 6.3254306 4.2906081 6.4941406 4.1738281 C 6.6943106 4.0352681 6.921865 3.9589844 7.296875 3.9589844 z M 6.1347656 9.4921875 L 8.0195312 11.492188 C 7.6870412 11.604457 7.3321288 11.861328 7.0117188 11.861328 C 6.4502288 11.861328 6.09272 11.734364 5.78125 11.490234 C 5.46541 11.237704 5.3964844 11.080103 5.3964844 10.783203 C 5.3964844 10.352563 5.493995 10.091771 5.671875 9.8691406 A 1.0233 0.97743 0 0 0 5.6757812 9.8613281 C 5.7707813 9.7409181 5.9930756 9.6160475 6.1347656 9.4921875 z"/>
</svg>
